**kern
*clefG2
*k[]
*M5/4
=1-
2b
16cc
4b
8a#
4g
(16an
=2
1a)
(16a
8g)
16a-
=3
8a
1b
8a
=4
4b
16r
2cc
8dd
4cc
16b
=5
(16a
16g
1a)
8g
=6
8g-
16a
16b
8b
16cc
8dd
(8dd
8cc)
4dd
8cc
16dd
=7
1dd-
16cc
8dd-
16ee
=8
8.ee
4ee
8.ee
2ee
16ee
16ee
=9
4ee
4ee
2ee
16ee
8ee#
16ee#
=10
8dd
4dd
2ee
4.r
=11
*_